X:1     %Music
T:Mylecharane (Isle of Man) [Vylecharane]
B:Broadwood, L, 1893, English County Songs, London, Leadenhall Press
S:Tune from Elizabeth Cookson, Words from Notes and Queries, Ser 4, ii
Z:Lucy Broadwood
F:http://www.folkinfo.org/songs
M:3/4     %Meter
L:1/8     %
K:Eb
c2 |B2 G2 c2 |c4 c2 |B2 G2 E2 | D4
w:O My-le-cha-rane, where got you your gold?
 d2 |e2 d2 c2 |(c2 =B2) c2 |d6- | d2 z2
w: (Lone, lone have you left_ me here;)  *
 d2 |e2 f2 e2 |d2 e2 c2 |(cB) (AG) (FE) | (D2 E2)
w:O not in the cur-ragh, deep un--der_ the_ mould,_ 
 F2 |(G2 E2) C2 |(D2 c2) =B2 |c6- | c2  |]
w:(Lone, lone,_ and void_ of cheer.)  *